X: 9393
T: Dandy Dancer, The
R: jig
M: 6/8
K: Amajor
|:e/d/|c2 A AGA|E2 A cBA|d2 B f2 B|gfe dcB|
c2 A AGA|EAA cBA|dcB gfg|a3 a2:|
|:e|aec A2 e|agf edc|d2 B f2 B|gfe dcB|
a2 e c2 e|agf edc|d2 B gfg|a3- a2:|

